T: Carricknagavna, The
M: 4/4
L: 1/8
K: Gmaj
g>bg>d B>gd>c | (3B^AB G>F G2 (3EFG | (3A^GA d>^c d2 (3=cBA | (3B^AB d>B =A2 (3Bcd |g>bg>d B2 (3gdc | (3B^AB G2 G2 FG | A2 d2 dcBA | (3GFG (3AGF G2 :|(3BcB G>B g2 (3fed | c2 ^c2 a3 g | (3fgf d>f e2 (3gfe | (3ded ^c>e d2 (3ecd |B>G (3Bcd gfed | ^c>a^g>a A2 a>=g | f2 d2 c>A (3FGA | G2 G>F G2 :|
